X:239
T:Burren, The
R:reel
Z:transcribed by Dave Marshall
M:C|
K:D
|: A2AB A~F3 | AFAd f2fg | afef dBAc | dBAF EFDF |
A2AB A~F3 | AFAd f2fg | afef dBAF |1 Affe d2dB :|2 Affe d2de |
|: fded BAFE | DFAd fgaf | ~g2fg edBc | dBAF EFDF |
A2AB A~F3 | AFAd f2fg | afef dBAF |1 Affe d2de :|2 Affe d2dB |
